www/assets/icons/speaker_notes_off.svg

<svg xmlns="http://www.w3.org/2000/svg" width="24" height="24" viewBox="0 0 24 24" fill='currentColor'><path d="M2.27 1 1 2.27l2.01 2.01L3 21.27l4-4h9L21.73 23 23 21.73zM9 13.27H7v-2h2zm-2-3v-2l2 2zm14-9H5.08L11 7.19V5.27h8v2h-7.92l1 1H19v2h-4.92l6.99 6.99c1.07-.04 1.93-.91 1.93-1.99v-12c0-1.1-.9-2-2-2"/></svg>

<svg width="24" height="24" viewBox="0 0 24 24" xmlns="http://www.w3.org/2000/svg" fill='currentColor'><path d="M2.27 1L1 2.27L3.01 4.28L3 21.27L7 17.27H16L21.73 23L23 21.73L2.27 1ZM9 13.27H7V11.27H9V13.27ZM7 10.27V8.27L9 10.27H7ZM21 1.27H5.08L11 7.19V5.27H19V7.27H11.08L12.08 8.27H19V10.27H14.08L21.07 17.26C22.14 17.22 23 16.35 23 15.27V3.27C23 2.17 22.1 1.27 21 1.27Z"/></svg>
